X: 1983
T: As I Roved Out
R: polka
M: 2/4
K: Edorian
|B B/B/ E>E|F/G/F/E/ D>D|E E<G A|B A3|B B/B/ E>E|F/G/F/E/ D>D|E E<G A|BA3|
Be ed/e/|f>e d>B|d d d D|FA d>c|BB Ez|F/G/F/E/ Dz|dd F/G/F/E/|F E/D/ E2||

